X: 20567
T: John Naughton's Green Mountain
R: reel
M: 4/4
K: Dmajor
|:FDDG FDCD|B,CDG FGBc|dBfd cBdc|BGEG BcBG|
FDDG FDCD|B,CDG FGBc|dBfd cBdc|1 BGEG B3G:|2 BGEG B3d||
B(4dddd f(4dddd|fdcd BGGG|Bddd f3g|fdcd B3d|
B~d3 f~d3|fdcd BGGG|GFDG FGBd|1 fdcd B3d:|2 fdcd B3G||

